X: 21153
M: 2/4
L: 1/16
K: G
V: 1 name="6"
d2g2e2g2 | dedc B2d2 | c2c2 B2B2 | A6 Bc |\
d2g2e2g2 | dedc B2d2 | e2a2 gfef | g4 z2 H|]
|: d2 |\
g2z2 f2z2 | g2z2 e2z2 | d2d2 c2B2 | B2G2 z2d2 |\
gabg fgaf | gdba gfed | cBAG F2d2 | G4 z2 :|


